X: 37592
T: Smith O' Couster
R: reel
M: 4/4
K: Dmajor
ABc|:d2fa gece|dfed cAAd|BGGd AFFA|^GBed c2 (3ABc|
d2(3fga gece|dfed cAAd|BGGF GABc|1 dfec d2 (3ABc:|2 dfec d2 de||
|:fdfa ecec|dfed cAAd|BGGd AFFd
[1 ^GBed c2 de|fdfa ecec|dfed c~A3|BGGF GABc|dfec d2 de:|
[2 ^GBed c2 (3ABc|d2fa gece|dfed cAAd|BGGF GABc|dfec d4||

